src/gui/emoticons/freaked-out.svg

<svg xmlns="http://www.w3.org/2000/svg" xmlns:xlink="http://www.w3.org/1999/xlink" width="16pt" height="16pt" version="1.1" viewBox="0 0 16 16"><defs><linearGradient id="linear0" x1="64" x2="64" y1="19.717" y2="107.7" gradientTransform="matrix(0.125,0,0,0.125,0,0)" gradientUnits="userSpaceOnUse"><stop offset=".5" style="stop-color:#fee133;stop-opacity:1"/><stop offset=".612" style="stop-color:#fede32;stop-opacity:1"/><stop offset=".708" style="stop-color:#fcd32f;stop-opacity:1"/><stop offset=".797" style="stop-color:#fac12b;stop-opacity:1"/><stop offset=".883" style="stop-color:#f7a924;stop-opacity:1"/><stop offset=".9" style="stop-color:#f6a323;stop-opacity:1"/></linearGradient><clipPath id="clip1"><path d="M 3 10 L 13 10 L 13 11 L 3 11 Z M 3 10"/></clipPath><clipPath id="clip2"><path d="M 11.734375 9.207031 C 12.328125 9.207031 12.8125 9.785156 12.8125 10.488281 C 12.8125 11.195312 12.328125 11.769531 11.734375 11.769531 L 4.265625 11.769531 C 3.671875 11.769531 3.1875 11.195312 3.1875 10.488281 C 3.1875 9.785156 3.671875 9.207031 4.265625 9.207031 Z M 11.734375 9.207031"/></clipPath><clipPath id="clip3"><path d="M 4 9 L 5 9 L 5 12 L 4 12 Z M 4 9"/></clipPath><clipPath id="clip4"><path d="M 11.734375 9.207031 C 12.328125 9.207031 12.8125 9.785156 12.8125 10.488281 C 12.8125 11.195312 12.328125 11.769531 11.734375 11.769531 L 4.265625 11.769531 C 3.671875 11.769531 3.1875 11.195312 3.1875 10.488281 C 3.1875 9.785156 3.671875 9.207031 4.265625 9.207031 Z M 11.734375 9.207031"/></clipPath><clipPath id="clip5"><path d="M 6 9 L 7 9 L 7 12 L 6 12 Z M 6 9"/></clipPath><clipPath id="clip6"><path d="M 11.734375 9.207031 C 12.328125 9.207031 12.8125 9.785156 12.8125 10.488281 C 12.8125 11.195312 12.328125 11.769531 11.734375 11.769531 L 4.265625 11.769531 C 3.671875 11.769531 3.1875 11.195312 3.1875 10.488281 C 3.1875 9.785156 3.671875 9.207031 4.265625 9.207031 Z M 11.734375 9.207031"/></clipPath><clipPath id="clip7"><path d="M 7 9 L 9 9 L 9 12 L 7 12 Z M 7 9"/></clipPath><clipPath id="clip8"><path d="M 11.734375 9.207031 C 12.328125 9.207031 12.8125 9.785156 12.8125 10.488281 C 12.8125 11.195312 12.328125 11.769531 11.734375 11.769531 L 4.265625 11.769531 C 3.671875 11.769531 3.1875 11.195312 3.1875 10.488281 C 3.1875 9.785156 3.671875 9.207031 4.265625 9.207031 Z M 11.734375 9.207031"/></clipPath><clipPath id="clip9"><path d="M 9 9 L 11 9 L 11 12 L 9 12 Z M 9 9"/></clipPath><clipPath id="clip10"><path d="M 11.734375 9.207031 C 12.328125 9.207031 12.8125 9.785156 12.8125 10.488281 C 12.8125 11.195312 12.328125 11.769531 11.734375 11.769531 L 4.265625 11.769531 C 3.671875 11.769531 3.1875 11.195312 3.1875 10.488281 C 3.1875 9.785156 3.671875 9.207031 4.265625 9.207031 Z M 11.734375 9.207031"/></clipPath><clipPath id="clip11"><path d="M 11 9 L 12 9 L 12 12 L 11 12 Z M 11 9"/></clipPath><clipPath id="clip12"><path d="M 11.734375 9.207031 C 12.328125 9.207031 12.8125 9.785156 12.8125 10.488281 C 12.8125 11.195312 12.328125 11.769531 11.734375 11.769531 L 4.265625 11.769531 C 3.671875 11.769531 3.1875 11.195312 3.1875 10.488281 C 3.1875 9.785156 3.671875 9.207031 4.265625 9.207031 Z M 11.734375 9.207031"/></clipPath></defs><g id="surface1"><path style="stroke:none;fill-rule:nonzero;fill:url(#linear0)" d="M 8 14.984375 C 4.507812 14.984375 0.75 12.800781 0.75 8 C 0.75 3.199219 4.507812 1.015625 8 1.015625 C 9.933594 1.015625 11.726562 1.652344 13.046875 2.816406 C 14.488281 4.089844 15.25 5.882812 15.25 8 C 15.25 10.109375 14.488281 11.894531 13.046875 13.171875 C 11.722656 14.34375 9.929688 14.984375 8 14.984375 Z M 8 14.984375"/><path style="stroke:none;fill-rule:nonzero;fill:#eb8f00;fill-opacity:1" d="M 8 1.265625 C 9.875 1.265625 11.609375 1.882812 12.878906 3.003906 C 14.265625 4.230469 15 5.957031 15 8 C 15 10.035156 14.265625 11.757812 12.878906 12.984375 C 11.601562 14.113281 9.871094 14.734375 8 14.734375 C 6.121094 14.734375 4.386719 14.121094 3.121094 13.007812 C 1.734375 11.789062 1 10.058594 1 8 C 1 5.933594 1.734375 4.199219 3.121094 2.980469 C 4.382812 1.875 6.117188 1.265625 8 1.265625 M 8 0.765625 C 4.105469 0.765625 0.5 3.265625 0.5 8 C 0.5 12.710938 4.105469 15.234375 8 15.234375 C 11.894531 15.234375 15.5 12.644531 15.5 8 C 15.5 3.328125 11.894531 0.765625 8 0.765625 Z M 8 0.765625"/><path style="stroke:none;fill-rule:nonzero;fill:#fff;fill-opacity:1" d="M 4.433594 12.03125 C 3.609375 12.03125 2.9375 11.359375 2.9375 10.53125 L 2.9375 10.449219 C 2.9375 9.625 3.609375 8.953125 4.433594 8.953125 L 11.566406 8.953125 C 12.390625 8.953125 13.0625 9.625 13.0625 10.449219 L 13.0625 10.53125 C 13.0625 11.359375 12.390625 12.03125 11.566406 12.03125 Z M 4.433594 12.03125"/><path style="stroke:none;fill-rule:nonzero;fill:#eb8f00;fill-opacity:1" d="M 11.566406 9.203125 C 12.253906 9.203125 12.8125 9.761719 12.8125 10.449219 L 12.8125 10.53125 C 12.8125 11.21875 12.253906 11.78125 11.566406 11.78125 L 4.433594 11.78125 C 3.746094 11.78125 3.1875 11.21875 3.1875 10.53125 L 3.1875 10.449219 C 3.1875 9.761719 3.746094 9.203125 4.433594 9.203125 Z M 11.566406 8.703125 L 4.433594 8.703125 C 3.472656 8.703125 2.6875 9.488281 2.6875 10.449219 L 2.6875 10.53125 C 2.6875 11.492188 3.472656 12.28125 4.433594 12.28125 L 11.566406 12.28125 C 12.527344 12.28125 13.3125 11.492188 13.3125 10.53125 L 13.3125 10.449219 C 13.3125 9.488281 12.527344 8.703125 11.566406 8.703125 Z M 11.566406 8.703125"/><g clip-path="url(#clip1)" clip-rule="nonzero"><g clip-path="url(#clip2)" clip-rule="nonzero"><path style="fill:none;stroke-width:4;stroke-linecap:butt;stroke-linejoin:miter;stroke:#b3b3b0;stroke-opacity:1;stroke-miterlimit:10" d="M 16.40625 83.9375 L 111.59375 83.9375" transform="matrix(0.125,0,0,0.125,0,0)"/></g></g><g clip-path="url(#clip3)" clip-rule="nonzero"><g clip-path="url(#clip4)" clip-rule="nonzero"><path style="fill:none;stroke-width:4;stroke-linecap:butt;stroke-linejoin:miter;stroke:#b3b3b0;stroke-opacity:1;stroke-miterlimit:10" d="M 37.03125 68.65625 L 37.03125 99.1875" transform="matrix(0.125,0,0,0.125,0,0)"/></g></g><g clip-path="url(#clip5)" clip-rule="nonzero"><g clip-path="url(#clip6)" clip-rule="nonzero"><path style="fill:none;stroke-width:4;stroke-linecap:butt;stroke-linejoin:miter;stroke:#b3b3b0;stroke-opacity:1;stroke-miterlimit:10" d="M 50.75 68.65625 L 50.75 99.1875" transform="matrix(0.125,0,0,0.125,0,0)"/></g></g><g clip-path="url(#clip7)" clip-rule="nonzero"><g clip-path="url(#clip8)" clip-rule="nonzero"><path style="fill:none;stroke-width:4;stroke-linecap:butt;stroke-linejoin:miter;stroke:#b3b3b0;stroke-opacity:1;stroke-miterlimit:10" d="M 64.5 68.65625 L 64.5 99.1875" transform="matrix(0.125,0,0,0.125,0,0)"/></g></g><g clip-path="url(#clip9)" clip-rule="nonzero"><g clip-path="url(#clip10)" clip-rule="nonzero"><path style="fill:none;stroke-width:4;stroke-linecap:butt;stroke-linejoin:miter;stroke:#b3b3b0;stroke-opacity:1;stroke-miterlimit:10" d="M 78.25 68.65625 L 78.25 99.1875" transform="matrix(0.125,0,0,0.125,0,0)"/></g></g><g clip-path="url(#clip11)" clip-rule="nonzero"><g clip-path="url(#clip12)" clip-rule="nonzero"><path style="fill:none;stroke-width:4;stroke-linecap:butt;stroke-linejoin:miter;stroke:#b3b3b0;stroke-opacity:1;stroke-miterlimit:10" d="M 92 68.65625 L 92 99.1875" transform="matrix(0.125,0,0,0.125,0,0)"/></g></g><path style="stroke:none;fill-rule:nonzero;fill:#242424;fill-opacity:1" d="M 5.582031 4.734375 C 5.058594 4.734375 4.582031 5.175781 4.582031 5.910156 C 4.582031 6.644531 5.058594 7.085938 5.582031 7.085938 C 6.109375 7.085938 6.582031 6.644531 6.582031 5.910156 C 6.582031 5.175781 6.109375 4.734375 5.582031 4.734375 Z M 5.582031 4.734375"/><path style="stroke:none;fill-rule:nonzero;fill:#242424;fill-opacity:1" d="M 10.417969 4.734375 C 9.890625 4.734375 9.417969 5.175781 9.417969 5.910156 C 9.417969 6.644531 9.890625 7.085938 10.417969 7.085938 C 10.941406 7.085938 11.417969 6.644531 11.417969 5.910156 C 11.417969 5.175781 10.941406 4.734375 10.417969 4.734375 Z M 10.417969 4.734375"/></g></svg>

<svg xmlns="http://www.w3.org/2000/svg" width="16pt" height="16pt" viewBox="0 0 16 16"><defs><clipPath id="b"><path d="M3 10h10v1H3Zm0 0"/></clipPath><clipPath id="c"><path d="M11.734 9.207c.594 0 1.079.578 1.079 1.281 0 .707-.485 1.282-1.079 1.282H4.266c-.594 0-1.078-.575-1.078-1.282 0-.703.484-1.281 1.078-1.281Zm0 0"/></clipPath><clipPath id="d"><path d="M4 9h1v3H4Zm0 0"/></clipPath><clipPath id="e"><path d="M11.734 9.207c.594 0 1.079.578 1.079 1.281 0 .707-.485 1.282-1.079 1.282H4.266c-.594 0-1.078-.575-1.078-1.282 0-.703.484-1.281 1.078-1.281Zm0 0"/></clipPath><clipPath id="f"><path d="M6 9h1v3H6Zm0 0"/></clipPath><clipPath id="g"><path d="M11.734 9.207c.594 0 1.079.578 1.079 1.281 0 .707-.485 1.282-1.079 1.282H4.266c-.594 0-1.078-.575-1.078-1.282 0-.703.484-1.281 1.078-1.281Zm0 0"/></clipPath><clipPath id="h"><path d="M7 9h2v3H7Zm0 0"/></clipPath><clipPath id="i"><path d="M11.734 9.207c.594 0 1.079.578 1.079 1.281 0 .707-.485 1.282-1.079 1.282H4.266c-.594 0-1.078-.575-1.078-1.282 0-.703.484-1.281 1.078-1.281Zm0 0"/></clipPath><clipPath id="j"><path d="M9 9h2v3H9Zm0 0"/></clipPath><clipPath id="k"><path d="M11.734 9.207c.594 0 1.079.578 1.079 1.281 0 .707-.485 1.282-1.079 1.282H4.266c-.594 0-1.078-.575-1.078-1.282 0-.703.484-1.281 1.078-1.281Zm0 0"/></clipPath><clipPath id="l"><path d="M11 9h1v3h-1Zm0 0"/></clipPath><clipPath id="m"><path d="M11.734 9.207c.594 0 1.079.578 1.079 1.281 0 .707-.485 1.282-1.079 1.282H4.266c-.594 0-1.078-.575-1.078-1.282 0-.703.484-1.281 1.078-1.281Zm0 0"/></clipPath><linearGradient id="a" x1="64" x2="64" y1="19.717" y2="107.7" gradientTransform="scale(.125)" gradientUnits="userSpaceOnUse"><stop offset=".5" style="stop-color:#fee133;stop-opacity:1"/><stop offset=".612" style="stop-color:#fede32;stop-opacity:1"/><stop offset=".708" style="stop-color:#fcd32f;stop-opacity:1"/><stop offset=".797" style="stop-color:#fac12b;stop-opacity:1"/><stop offset=".883" style="stop-color:#f7a924;stop-opacity:1"/><stop offset=".9" style="stop-color:#f6a323;stop-opacity:1"/></linearGradient></defs><path d="M8 14.984C4.508 14.984.75 12.801.75 8 .75 3.2 4.508 1.016 8 1.016c1.934 0 3.727.636 5.047 1.8C14.488 4.09 15.25 5.883 15.25 8c0 2.11-.762 3.895-2.203 5.172C11.723 14.344 9.93 14.984 8 14.984m0 0" style="stroke:none;fill-rule:nonzero;fill:url(#a)"/><path d="M8 1.266c1.875 0 3.61.617 4.879 1.738C14.266 4.23 15 5.957 15 8c0 2.035-.734 3.758-2.121 4.984-1.277 1.13-3.008 1.75-4.879 1.75-1.879 0-3.613-.613-4.879-1.726C1.734 11.789 1 10.058 1 8c0-2.066.734-3.8 2.121-5.02C4.383 1.875 6.117 1.266 8 1.266m0-.5C4.105.766.5 3.266.5 8c0 4.71 3.605 7.234 7.5 7.234s7.5-2.59 7.5-7.234C15.5 3.328 11.895.766 8 .766m0 0" style="stroke:none;fill-rule:nonzero;fill:#eb8f00;fill-opacity:1"/><path d="M4.434 12.031a1.5 1.5 0 0 1-1.497-1.5v-.082c0-.824.672-1.496 1.497-1.496h7.132c.825 0 1.496.672 1.496 1.496v.082a1.5 1.5 0 0 1-1.496 1.5Zm0 0" style="stroke:none;fill-rule:nonzero;fill:#fff;fill-opacity:1"/><path d="M11.566 9.203c.688 0 1.246.559 1.246 1.246v.082a1.25 1.25 0 0 1-1.246 1.25H4.434a1.25 1.25 0 0 1-1.247-1.25v-.082c0-.687.56-1.246 1.247-1.246Zm0-.5H4.434a1.75 1.75 0 0 0-1.747 1.746v.082c0 .961.786 1.75 1.747 1.75h7.132c.961 0 1.746-.789 1.746-1.75v-.082a1.75 1.75 0 0 0-1.746-1.746m0 0" style="stroke:none;fill-rule:nonzero;fill:#eb8f00;fill-opacity:1"/><g clip-path="url(#b)"><g clip-path="url(#c)"><path d="M16.406 83.938h95.188" style="fill:none;stroke-width:4;stroke-linecap:butt;stroke-linejoin:miter;stroke:#b3b3b0;stroke-opacity:1;stroke-miterlimit:10" transform="scale(.125)"/></g></g><g clip-path="url(#d)"><g clip-path="url(#e)"><path d="M37.031 68.656v30.531" style="fill:none;stroke-width:4;stroke-linecap:butt;stroke-linejoin:miter;stroke:#b3b3b0;stroke-opacity:1;stroke-miterlimit:10" transform="scale(.125)"/></g></g><g clip-path="url(#f)"><g clip-path="url(#g)"><path d="M50.75 68.656v30.531" style="fill:none;stroke-width:4;stroke-linecap:butt;stroke-linejoin:miter;stroke:#b3b3b0;stroke-opacity:1;stroke-miterlimit:10" transform="scale(.125)"/></g></g><g clip-path="url(#h)"><g clip-path="url(#i)"><path d="M64.5 68.656v30.531" style="fill:none;stroke-width:4;stroke-linecap:butt;stroke-linejoin:miter;stroke:#b3b3b0;stroke-opacity:1;stroke-miterlimit:10" transform="scale(.125)"/></g></g><g clip-path="url(#j)"><g clip-path="url(#k)"><path d="M78.25 68.656v30.531" style="fill:none;stroke-width:4;stroke-linecap:butt;stroke-linejoin:miter;stroke:#b3b3b0;stroke-opacity:1;stroke-miterlimit:10" transform="scale(.125)"/></g></g><g clip-path="url(#l)"><g clip-path="url(#m)"><path d="M92 68.656v30.531" style="fill:none;stroke-width:4;stroke-linecap:butt;stroke-linejoin:miter;stroke:#b3b3b0;stroke-opacity:1;stroke-miterlimit:10" transform="scale(.125)"/></g></g><path d="M5.582 4.734c-.523 0-1 .442-1 1.176 0 .735.477 1.176 1 1.176.527 0 1-.441 1-1.176s-.473-1.176-1-1.176M10.418 4.734c-.527 0-1 .442-1 1.176 0 .735.473 1.176 1 1.176.523 0 1-.441 1-1.176s-.477-1.176-1-1.176m0 0" style="stroke:none;fill-rule:nonzero;fill:#242424;fill-opacity:1"/></svg>
